X: 010576
T: Arthur's (Hornpipe)
S: Treoir 
C: Noel Strange
Z: B.Black
M: 2/4
L: 1/8
R: hornpipe 
K: D
AF | (3DED AE DFAd | fdBc dBAF |(3DED AE DFAF|\
GBFG E2 AF |
(3DED AE DFAd | fdBc dBAG | FdBG FAGE |\
(3DED CE D2 :|
Bc | d2 ce dAFB | d2 fa gfed | c2 Ac B2 GB |\
BAFD A,GFE |
(3DED AE DFAd | fdBc dBAF | FdBG FAGE |\
(3DED CE D2 :|
